svg/database_settings_outline.svg

<svg xmlns="http://www.w3.org/2000/svg" viewBox="0 0 24 24"><path d="M12 3C7.58 3 4 4.79 4 7v10c0 1.2 1.06 2.27 2.73 3h10.54c1.67-.73 2.73-1.8 2.73-3V7c0-2.21-3.58-4-8-4m6 14c0 .5-2.13 2-6 2s-6-1.5-6-2v-2.23c1.61.78 3.72 1.23 6 1.23s4.39-.45 6-1.23zm0-4.55c-1.3.95-3.58 1.55-6 1.55s-4.7-.6-6-1.55V9.64c1.47.83 3.61 1.36 6 1.36s4.53-.53 6-1.36zM12 9C8.13 9 6 7.5 6 7s2.13-2 6-2 6 1.5 6 2-2.13 2-6 2M7 22h2v2H7zm8 0h2v2h-2zm-4 0h2v2h-2z"/></svg>

<?xml version="1.0" encoding="UTF-8"?><!DOCTYPE svg PUBLIC "-//W3C//DTD SVG 1.1//EN" "http://www.w3.org/Graphics/SVG/1.1/DTD/svg11.dtd"><svg xmlns="http://www.w3.org/2000/svg" xmlns:xlink="http://www.w3.org/1999/xlink" version="1.1" id="mdi-database-settings-outline" width="24" height="24" viewBox="0 0 24 24"><path d="M12 3C7.58 3 4 4.79 4 7V17C4 18.2 5.06 19.27 6.73 20H17.27C18.94 19.27 20 18.2 20 17V7C20 4.79 16.42 3 12 3M18 17C18 17.5 15.87 19 12 19S6 17.5 6 17V14.77C7.61 15.55 9.72 16 12 16S16.39 15.55 18 14.77V17M18 12.45C16.7 13.4 14.42 14 12 14S7.3 13.4 6 12.45V9.64C7.47 10.47 9.61 11 12 11S16.53 10.47 18 9.64V12.45M12 9C8.13 9 6 7.5 6 7S8.13 5 12 5 18 6.5 18 7 15.87 9 12 9M7 22H9V24H7V22M15 22H17V24H15V22M11 22H13V24H11V22Z" /></svg>
